images/screen.svg

<svg width="289" height="390" viewBox="0 0 289 390" fill="none" xmlns="http://www.w3.org/2000/svg">
<path d="M0.215698 4.72803L282.641 167.124V389.484L0.215698 227.089V4.72803Z" fill="#826F8C" fill-opacity="0.9"/>
<path d="M288.964 163.39L282.641 167.123V389.484L288.964 385.751V163.39Z" fill="#446381"/>
<path d="M276.786 171.09V303.153L5.60205 147.058V15.2278L276.786 171.09Z" fill="#506898"/>
<path d="M109.345 206.789L176.321 245.288L197.632 333.252L61.5717 254.854L109.345 206.789Z" fill="#786D8A"/>
<path d="M28.5519 69.8263C28.5519 63.9931 32.2988 61.1932 36.7483 63.7598C37.685 64.4597 38.8559 65.1597 39.7927 66.093C41.6661 63.2931 44.9447 62.5931 48.6917 64.6931C53.1411 67.2597 56.6539 72.8595 58.2932 78.6927C59.6983 77.7594 61.5717 77.7594 63.6794 79.1594C66.7238 81.026 69.534 84.7592 70.9391 88.7258C71.8758 88.7258 72.8125 88.9591 73.9834 89.4257C77.0278 91.059 79.6039 95.2589 80.3064 99.2255L28.5519 69.8263Z" fill="white"/>
<path d="M259.691 203.056C259.457 195.823 255.241 187.423 249.855 184.39C248.684 183.69 247.513 183.223 246.342 183.223C244.001 177.39 240.254 172.024 235.804 169.457C230.652 166.424 226.203 168.057 224.095 172.957C222.456 169.924 220.114 167.357 217.538 165.957C213.791 163.857 210.747 164.557 208.873 167.59C207.702 166.19 206.531 165.024 205.126 164.324C201.613 162.224 198.569 163.624 197.632 167.357L259.691 203.056Z" fill="white"/>
<path d="M82.4139 113.459C82.8823 109.959 85.2241 108.325 88.2685 110.192C89.6736 110.892 90.8446 112.292 92.0155 113.925C93.1864 111.592 95.7624 110.892 98.3384 112.525C101.617 114.392 104.427 118.825 105.364 123.258C106.066 123.025 107.237 123.258 108.174 123.725C110.282 124.892 112.155 127.925 112.858 130.958L82.4139 113.459Z" fill="white"/>
<path d="M178.898 186.723C179.366 183.457 181.474 182.057 184.284 183.69C185.455 184.39 186.626 185.79 187.562 187.19C188.733 185.09 190.841 184.39 193.417 185.79C196.461 187.423 199.037 191.623 199.74 195.59C200.443 195.356 201.379 195.59 202.316 196.056C204.424 197.223 206.063 200.023 206.766 202.589L178.898 186.723Z" fill="white"/>
<path d="M16.6085 98.2924C17.0769 95.0258 19.1846 93.6259 21.9948 95.2592C23.1657 95.9592 24.3366 97.3591 25.2733 98.7591C26.4442 96.6591 28.5519 95.9592 31.1279 97.3591C34.1723 98.9924 36.7483 103.192 37.4508 107.159C38.1534 106.926 39.0901 107.159 40.0269 107.626C42.1345 108.792 43.7738 111.592 44.4763 114.159L16.6085 98.2924Z" fill="white"/>
<path d="M160.631 162.924C161.1 159.657 163.207 158.257 166.018 159.891C167.189 160.591 168.359 161.99 169.296 163.39C170.467 161.29 172.575 160.59 175.151 161.99C178.195 163.624 180.771 167.824 181.474 171.79C182.176 171.557 183.113 171.79 184.05 172.257C186.157 173.423 187.797 176.223 188.499 178.79L160.631 162.924Z" fill="white"/>
<path d="M198.569 224.522C199.506 220.789 202.784 223.589 205.595 225.222C203.955 220.089 205.126 214.956 209.107 217.756C209.107 215.422 209.81 213.089 211.683 213.789C212.152 213.789 212.386 214.022 212.854 214.489C212.386 212.389 212.62 210.523 213.557 209.356C216.133 206.789 220.114 210.989 221.285 215.889C224.329 215.422 228.545 216.589 230.418 222.189C235.57 221.256 240.722 232.922 238.38 236.655C241.659 239.222 243.532 245.988 240.722 246.922C246.108 254.388 245.874 264.654 240.02 265.121C240.722 272.354 235.336 275.154 230.652 267.921C229.95 268.154 229.481 268.388 228.779 268.388C228.076 272.121 227.374 276.787 227.374 280.521C227.14 287.287 227.374 295.687 227.374 303.62C227.374 310.387 228.31 319.72 228.545 322.286L217.304 315.753C218.006 314.12 219.646 308.987 220.114 303.853C220.582 297.787 220.817 281.221 218.943 276.787C217.07 272.588 211.683 264.421 210.044 258.355C209.342 256.021 208.873 253.688 208.639 251.821C204.19 248.788 199.74 241.322 202.784 235.955C200.208 232.922 197.867 228.022 198.569 224.522ZM212.152 260.221C214.962 265.354 220.348 273.988 220.348 273.988C220.348 273.988 220.348 267.921 220.817 262.788C220.582 262.321 220.582 261.855 220.348 261.621C218.475 261.855 216.367 259.988 214.494 256.955C213.791 256.021 213.089 254.855 212.62 253.688C211.918 253.921 210.981 253.921 210.278 253.455C210.513 255.321 210.981 257.888 212.152 260.221Z" fill="#EFC8C5"/>
<path d="M90.8447 151.957C89.9079 147.057 86.6294 146.124 83.8192 144.724C85.4585 141.457 84.2875 134.924 80.3064 133.291C80.3064 130.958 79.6039 127.924 77.7304 126.291C77.262 126.058 77.0278 125.825 76.5595 125.825C77.0278 124.425 76.7937 122.091 75.857 119.758C73.2809 114.391 69.2998 113.925 68.1289 117.425C65.0845 113.458 60.8692 109.725 58.9957 113.225C53.8437 106.225 48.6917 112.058 51.0335 118.591C47.7549 117.191 45.8815 122.091 48.6917 126.291C43.3055 127.458 43.5396 137.958 49.3942 145.424C48.6916 151.957 54.0779 160.824 58.7615 159.19C59.4641 160.124 59.9325 161.057 60.635 161.99C61.3376 166.423 62.0401 172.023 62.0401 175.756C62.2743 182.756 62.0401 190.923 62.0401 198.856C62.0401 205.622 61.1033 213.789 60.8692 216.122L72.11 222.655C71.4075 220.322 69.7681 213.089 69.2998 207.489C68.8314 200.722 68.5972 183.923 70.4707 182.056C72.3442 180.19 77.7304 177.856 79.3697 173.89C80.0723 172.257 80.5406 170.623 80.7747 169.223C85.2242 171.323 89.6737 168.757 86.6293 160.357C89.2053 158.724 91.7814 156.624 90.8447 151.957ZM77.262 172.257C74.4518 174.357 69.0656 176.456 69.0656 176.456C69.0656 176.456 69.0656 170.39 68.5973 164.79C68.8314 164.557 68.8314 164.323 69.0656 164.09C70.939 166.657 73.0467 167.123 74.9202 166.19C75.6227 165.957 76.3253 165.723 76.7937 165.023C77.4962 165.957 78.433 166.89 79.1355 167.59C78.9013 169.457 78.4329 171.323 77.262 172.257Z" fill="#EFC8C5"/>
<path d="M204.189 301.053C203.955 299.887 204.189 298.72 204.892 298.02C206.063 296.853 207.702 297.553 209.107 298.953C209.341 297.32 209.81 295.92 210.98 296.153C211.917 296.387 212.854 297.32 213.791 298.487C213.557 297.087 213.791 295.92 214.493 295.22C215.43 293.82 217.303 294.287 218.943 295.453C220.582 296.62 221.753 298.953 222.455 301.287C222.924 301.52 223.392 301.987 224.095 302.453C225.266 303.153 226.202 303.853 227.139 305.02C228.544 306.887 229.013 308.986 228.778 310.853C230.652 312.02 232.76 313.886 233.696 316.92C234.633 320.42 233.228 321.586 231.354 321.819C231.823 323.219 232.057 324.619 231.589 325.786C230.886 328.586 228.31 327.653 226.202 326.253C224.563 328.353 221.05 326.486 218.709 323.219C216.835 324.153 212.854 321.819 211.215 317.853C209.81 319.253 207.702 318.786 205.594 316.22C203.252 313.42 203.252 310.386 204.189 308.52C203.252 307.587 202.55 305.953 202.316 304.553C201.379 301.753 202.55 300.587 204.189 301.053Z" fill="#F5E2E1"/>
<path d="M54.078 204.923C53.8438 203.756 54.078 202.589 54.7806 201.889C55.9515 200.723 57.5908 201.423 58.9959 202.823C59.23 201.189 59.6984 199.79 60.8693 200.023C61.806 200.256 62.7428 201.189 63.6795 202.356C63.4453 200.956 63.6795 199.79 64.382 199.09C65.3188 197.69 67.1923 198.156 68.8316 199.323C70.4709 200.49 71.6418 202.823 72.3443 205.156C72.8127 205.389 73.281 205.856 73.9836 206.323C75.1545 207.023 76.0913 207.723 77.028 208.889C78.4331 210.756 78.9014 212.856 78.6672 214.722C80.5407 215.889 82.6484 217.756 83.5851 220.789C84.5218 224.289 83.1167 225.456 81.2433 225.689C81.7116 227.089 81.9458 228.489 81.4775 229.655C80.7749 232.455 78.1989 231.522 76.0912 230.122C74.4519 232.222 70.9392 230.355 68.5974 227.089C66.7239 228.022 62.7428 225.689 61.1035 221.722C59.6984 223.122 57.5908 222.656 55.4831 220.089C53.1413 217.289 53.1413 214.256 54.078 212.389C53.1413 211.456 52.4387 209.823 52.2046 208.423C51.2678 205.623 52.6729 204.223 54.078 204.923Z" fill="#F5E2E1"/>
<path d="M27.1467 203.289C26.9125 202.589 27.1467 201.656 27.6151 201.422C28.3176 200.723 29.2544 201.189 30.1911 202.122C30.1911 201.189 30.6595 200.256 31.362 200.489C31.8304 200.489 32.5329 201.189 33.0012 201.889C32.7671 200.956 33.0013 200.256 33.4696 199.789C34.1722 198.856 35.1089 199.089 36.2798 200.023C37.2165 200.723 38.1533 202.122 38.6216 203.522C38.8558 203.756 39.3242 203.989 39.7925 204.222C40.4951 204.689 40.9635 204.922 41.6661 205.856C42.6028 207.022 42.837 208.422 42.6028 209.589C43.7737 210.289 45.1788 211.456 45.6471 213.322C46.3497 215.655 45.413 216.355 44.2421 216.355C44.4763 217.055 44.7104 217.989 44.4762 218.689C44.0078 220.322 42.3686 219.855 40.9635 218.922C40.0267 220.089 37.6849 218.922 36.2798 217.055C35.1089 217.522 32.5329 216.122 31.5961 213.556C30.6594 214.489 29.2543 214.255 28.0834 212.622C26.6783 210.989 26.6783 209.122 27.1467 207.722C26.6783 207.022 26.2099 206.089 25.9757 205.389C25.5074 203.756 26.2099 202.822 27.1467 203.289Z" fill="#F5E2E1"/>
<path d="M193.417 274.221C193.183 273.521 193.417 272.587 193.886 272.354C194.588 271.654 195.525 272.121 196.462 273.054C196.462 272.121 196.93 271.187 197.633 271.421C198.101 271.421 198.803 272.121 199.272 272.821C199.038 271.887 199.272 271.187 199.74 270.721C200.443 269.787 201.379 270.021 202.55 270.954C203.487 271.654 204.424 273.054 204.892 274.454C205.126 274.687 205.595 274.921 206.063 275.154C206.766 275.621 207.234 275.854 207.937 276.787C208.873 277.954 209.107 279.354 208.873 280.52C210.044 281.22 211.449 282.387 211.918 284.254C212.62 286.587 211.684 287.287 210.513 287.287C210.747 287.987 210.981 288.92 210.747 289.62C210.278 291.254 208.639 290.787 207.234 289.854C206.297 291.02 203.955 289.854 202.55 287.987C201.379 288.454 198.803 287.054 197.867 284.487C196.93 285.42 195.525 285.187 194.354 283.554C192.949 281.92 192.949 280.054 193.417 278.654C192.949 277.954 192.48 277.021 192.246 276.321C191.544 274.454 192.246 273.754 193.417 274.221Z" fill="#F5E2E1"/>
<path d="M17.5453 173.424C17.3111 172.49 17.5453 171.557 18.0137 171.09C18.9504 170.157 20.1213 170.857 21.2923 172.024C21.5264 170.857 21.7606 169.69 22.9316 169.69C23.6341 169.69 24.5708 170.624 25.0392 171.557C24.805 170.39 25.0392 169.457 25.5076 168.757C26.2101 167.824 27.6152 167.824 29.0203 168.99C30.1913 169.924 31.3621 171.79 31.8305 173.657C32.2989 173.89 32.5331 174.124 33.2356 174.59C34.1724 175.057 34.8749 175.523 35.5775 176.69C36.5142 178.323 36.9826 179.957 36.9826 181.357C38.6218 182.29 40.2611 183.69 40.9636 186.257C41.6662 189.056 40.4953 189.99 39.0902 190.223C39.5586 191.156 39.5586 192.323 39.3244 193.256C38.6218 195.356 36.7484 194.89 34.8749 193.49C33.4698 195.123 30.6596 193.723 29.0203 191.156C27.6152 191.856 24.3367 189.99 23.1658 186.723C21.9948 187.89 20.3556 187.423 18.4821 185.557C16.6086 183.223 16.6086 180.89 17.3112 179.257C16.6086 178.557 15.9061 177.157 15.6719 176.223C15.4377 173.89 16.3744 172.957 17.5453 173.424Z" fill="#F5E2E1"/>
<path d="M240.956 303.153C240.722 302.22 240.956 301.287 241.425 300.82C242.361 299.887 243.532 300.587 244.703 301.753C244.937 300.587 245.172 299.42 246.342 299.42C247.045 299.42 247.982 300.353 248.45 301.287C248.216 300.12 248.45 299.187 248.918 298.487C249.621 297.553 251.026 297.553 252.431 298.72C253.602 299.653 254.773 301.52 255.241 303.387C255.71 303.62 255.944 303.853 256.647 304.32C257.583 304.787 258.286 305.253 258.988 306.42C259.925 308.053 260.393 309.686 260.393 311.086C262.033 312.02 263.672 313.42 264.375 315.986C265.077 318.786 263.906 319.719 262.501 319.953C262.969 320.886 262.969 322.053 262.735 322.986C262.033 325.086 260.159 324.619 258.286 323.219C256.881 324.853 254.071 323.453 252.431 320.886C251.026 321.586 247.748 319.719 246.577 316.453C245.406 317.62 243.766 317.153 241.893 315.286C240.02 312.953 240.02 310.62 240.722 308.986C240.02 308.286 239.317 306.886 239.083 305.953C238.849 303.62 239.785 302.687 240.956 303.153Z" fill="#F5E2E1"/>
<path d="M138.618 238.522L143.536 226.156L145.644 227.322L143.302 241.089C141.897 240.389 140.257 239.455 138.618 238.522Z" fill="white"/>
<path d="M132.295 253.922L137.447 241.089C139.087 242.022 140.96 242.955 142.833 243.889L140.257 258.355C137.681 256.955 135.105 255.322 132.295 253.922Z" fill="white"/>
<path d="M125.27 270.954L131.358 256.255C134.169 257.888 136.979 259.521 139.789 261.155L136.276 277.721C132.764 275.388 129.017 273.054 125.27 270.954Z" fill="white"/>
<path d="M135.808 281.687L132.764 295.92L118.244 287.52L123.865 274.221C127.846 276.554 131.827 279.121 135.808 281.687Z" fill="white"/>
<path d="M288.964 163.391L282.641 167.124L0.215698 4.7281L6.53868 0.994873L288.964 163.391Z" fill="#826F8C"/>
</svg>

<svg width="289" height="390" fill="none" xmlns="http://www.w3.org/2000/svg"><path d="M.216 4.728L282.64 167.124v222.36L.216 227.089V4.728z" fill="#826F8C" fill-opacity=".9"/><path d="M288.964 163.39l-6.323 3.733v222.361l6.323-3.733V163.39z" fill="#446381"/><path d="M276.786 171.09v132.063L5.602 147.058V15.228L276.786 171.09z" fill="#506898"/><path d="M109.345 206.789l66.976 38.499 21.311 87.964-136.06-78.398 47.773-48.065z" fill="#786D8A"/><path d="M28.552 69.826c0-5.833 3.747-8.633 8.196-6.066.937.7 2.108 1.4 3.045 2.333 1.873-2.8 5.152-3.5 8.899-1.4 4.45 2.567 7.962 8.166 9.601 14 1.405-.934 3.279-.934 5.386.466 3.045 1.867 5.855 5.6 7.26 9.567.937 0 1.874.233 3.044.7 3.045 1.633 5.62 5.833 6.323 9.8l-51.754-29.4zm231.139 133.23c-.234-7.233-4.45-15.633-9.836-18.666-1.171-.7-2.342-1.167-3.513-1.167-2.341-5.833-6.088-11.199-10.538-13.766-5.152-3.033-9.601-1.4-11.709 3.5-1.639-3.033-3.981-5.6-6.557-7-3.747-2.1-6.791-1.4-8.665 1.633-1.171-1.4-2.342-2.566-3.747-3.266-3.513-2.1-6.557-.7-7.494 3.033l62.059 35.699zM82.414 113.459c.468-3.5 2.81-5.134 5.855-3.267 1.405.7 2.576 2.1 3.746 3.733 1.171-2.333 3.747-3.033 6.323-1.4 3.279 1.867 6.089 6.3 7.026 10.733.702-.233 1.873 0 2.81.467 2.108 1.167 3.981 4.2 4.684 7.233l-30.444-17.499zm96.484 73.264c.468-3.266 2.576-4.666 5.386-3.033 1.171.7 2.342 2.1 3.278 3.5 1.171-2.1 3.279-2.8 5.855-1.4 3.044 1.633 5.62 5.833 6.323 9.8.703-.234 1.639 0 2.576.466 2.108 1.167 3.747 3.967 4.45 6.533l-27.868-15.866zM16.608 98.292c.469-3.266 2.577-4.666 5.387-3.033 1.17.7 2.342 2.1 3.278 3.5 1.171-2.1 3.279-2.8 5.855-1.4 3.044 1.633 5.62 5.833 6.323 9.8.702-.233 1.64 0 2.576.467 2.108 1.166 3.747 3.966 4.45 6.533L16.608 98.292zm144.023 64.632c.469-3.267 2.576-4.667 5.387-3.033 1.171.7 2.341 2.099 3.278 3.499 1.171-2.1 3.279-2.8 5.855-1.4 3.044 1.634 5.62 5.834 6.323 9.8.702-.233 1.639 0 2.576.467 2.107 1.166 3.747 3.966 4.449 6.533l-27.868-15.866z" fill="#fff"/><path d="M198.569 224.522c.937-3.733 4.215-.933 7.026.7-1.64-5.133-.469-10.266 3.512-7.466 0-2.334.703-4.667 2.576-3.967.469 0 .703.233 1.171.7-.468-2.1-.234-3.966.703-5.133 2.576-2.567 6.557 1.633 7.728 6.533 3.044-.467 7.26.7 9.133 6.3 5.152-.933 10.304 10.733 7.962 14.466 3.279 2.567 5.152 9.333 2.342 10.267 5.386 7.466 5.152 17.732-.702 18.199.702 7.233-4.684 10.033-9.368 2.8-.702.233-1.171.467-1.873.467-.703 3.733-1.405 8.399-1.405 12.133-.234 6.766 0 15.166 0 23.099 0 6.767.936 16.1 1.171 18.666l-11.241-6.533c.702-1.633 2.342-6.766 2.81-11.9.468-6.066.703-22.632-1.171-27.066-1.873-4.199-7.26-12.366-8.899-18.432-.702-2.334-1.171-4.667-1.405-6.534-4.449-3.033-8.899-10.499-5.855-15.866-2.576-3.033-4.917-7.933-4.215-11.433zm13.583 35.699c2.81 5.133 8.196 13.767 8.196 13.767s0-6.067.469-11.2c-.235-.467-.235-.933-.469-1.167-1.873.234-3.981-1.633-5.854-4.666-.703-.934-1.405-2.1-1.874-3.267-.702.233-1.639.233-2.342-.233.235 1.866.703 4.433 1.874 6.766zM90.845 151.957c-.937-4.9-4.216-5.833-7.026-7.233 1.64-3.267.468-9.8-3.513-11.433 0-2.333-.702-5.367-2.576-7-.468-.233-.702-.466-1.17-.466.468-1.4.234-3.734-.703-6.067-2.576-5.367-6.557-5.833-7.728-2.333-3.044-3.967-7.26-7.7-9.133-4.2-5.152-7-10.304-1.167-7.963 5.366-3.278-1.4-5.151 3.5-2.341 7.7-5.386 1.167-5.152 11.667.702 19.133-.702 6.533 4.684 15.4 9.367 13.766.703.934 1.171 1.867 1.874 2.8.703 4.433 1.405 10.033 1.405 13.766.234 7 0 15.167 0 23.1 0 6.766-.937 14.933-1.17 17.266l11.24 6.533c-.703-2.333-2.342-9.566-2.81-15.166-.469-6.767-.703-23.566 1.17-25.433 1.874-1.866 7.26-4.2 8.9-8.166.702-1.633 1.17-3.267 1.405-4.667 4.45 2.1 8.899-.466 5.854-8.866 2.576-1.633 5.152-3.733 4.216-8.4zm-13.583 20.3c-2.81 2.1-8.196 4.199-8.196 4.199s0-6.066-.469-11.666c.234-.233.234-.467.469-.7 1.873 2.567 3.98 3.033 5.854 2.1.703-.233 1.405-.467 1.874-1.167.702.934 1.639 1.867 2.341 2.567-.234 1.867-.702 3.733-1.873 4.667z" fill="#EFC8C5"/><path d="M204.189 301.053c-.234-1.166 0-2.333.703-3.033 1.171-1.167 2.81-.467 4.215.933.234-1.633.703-3.033 1.873-2.8.937.234 1.874 1.167 2.811 2.334-.234-1.4 0-2.567.702-3.267.937-1.4 2.81-.933 4.45.233 1.639 1.167 2.81 3.5 3.512 5.834.469.233.937.7 1.64 1.166 1.171.7 2.107 1.4 3.044 2.567 1.405 1.867 1.874 3.966 1.639 5.833 1.874 1.167 3.982 3.033 4.918 6.067.937 3.5-.468 4.666-2.342 4.899.469 1.4.703 2.8.235 3.967-.703 2.8-3.279 1.867-5.387.467-1.639 2.1-5.152.233-7.493-3.034-1.874.934-5.855-1.4-7.494-5.366-1.405 1.4-3.513.933-5.621-1.633-2.342-2.8-2.342-5.834-1.405-7.7-.937-.933-1.639-2.567-1.873-3.967-.937-2.8.234-3.966 1.873-3.5zm-150.111-96.13c-.234-1.167 0-2.334.703-3.034 1.17-1.166 2.81-.466 4.215.934.234-1.634.702-3.033 1.873-2.8.937.233 1.874 1.166 2.81 2.333-.234-1.4 0-2.566.703-3.266.937-1.4 2.81-.934 4.45.233 1.639 1.167 2.81 3.5 3.512 5.833.469.233.937.7 1.64 1.167 1.17.7 2.107 1.4 3.044 2.566 1.405 1.867 1.873 3.967 1.64 5.833 1.873 1.167 3.98 3.034 4.917 6.067.937 3.5-.468 4.667-2.342 4.9.469 1.4.703 2.8.235 3.966-.703 2.8-3.28 1.867-5.387.467-1.64 2.1-5.152.233-7.494-3.033-1.873.933-5.854-1.4-7.493-5.367-1.406 1.4-3.513.934-5.62-1.633-2.343-2.8-2.343-5.833-1.406-7.7-.937-.933-1.64-2.566-1.873-3.966-.937-2.8.468-4.2 1.873-3.5zm-26.931-1.634c-.234-.7 0-1.633.468-1.867.703-.699 1.64-.233 2.576.7 0-.933.469-1.866 1.171-1.633.468 0 1.17.7 1.64 1.4-.235-.933 0-1.633.468-2.1.702-.933 1.639-.7 2.81.234.937.7 1.873 2.099 2.342 3.499.234.234.702.467 1.17.7.703.467 1.172.7 1.874 1.634a4.547 4.547 0 01.937 3.733c1.17.7 2.576 1.867 3.044 3.733.703 2.333-.234 3.033-1.405 3.033.234.7.468 1.634.234 2.334-.468 1.633-2.107 1.166-3.512.233-.937 1.167-3.28 0-4.684-1.867-1.171.467-3.747-.933-4.684-3.499-.937.933-2.342.699-3.513-.934-1.405-1.633-1.405-3.5-.936-4.9-.469-.7-.937-1.633-1.171-2.333-.469-1.633.234-2.567 1.17-2.1zm166.27 70.932c-.234-.7 0-1.634.469-1.867.702-.7 1.639-.233 2.576.7 0-.933.468-1.867 1.171-1.633.468 0 1.17.7 1.639 1.4-.234-.934 0-1.634.468-2.1.703-.934 1.639-.7 2.81.233.937.7 1.874 2.1 2.342 3.5.234.233.703.467 1.171.7.703.467 1.171.7 1.874 1.633.936 1.167 1.17 2.567.936 3.733 1.171.7 2.576 1.867 3.045 3.734.702 2.333-.234 3.033-1.405 3.033.234.7.468 1.633.234 2.333-.469 1.634-2.108 1.167-3.513.234-.937 1.166-3.279 0-4.684-1.867-1.171.467-3.747-.933-4.683-3.5-.937.933-2.342.7-3.513-.933-1.405-1.634-1.405-3.5-.937-4.9-.468-.7-.937-1.633-1.171-2.333-.702-1.867 0-2.567 1.171-2.1zM17.545 173.424c-.234-.934 0-1.867.469-2.334.936-.933 2.107-.233 3.278.934.234-1.167.469-2.334 1.64-2.334.702 0 1.639.934 2.107 1.867-.234-1.167 0-2.1.469-2.8.702-.933 2.107-.933 3.512.233 1.171.934 2.342 2.8 2.81 4.667.469.233.703.467 1.406.933.936.467 1.639.933 2.342 2.1.936 1.633 1.405 3.267 1.405 4.667 1.639.933 3.278 2.333 3.98 4.9.703 2.799-.468 3.733-1.873 3.966.469.933.469 2.1.234 3.033-.702 2.1-2.576 1.634-4.45.234-1.404 1.633-4.214.233-5.854-2.334-1.405.7-4.683-1.166-5.854-4.433-1.171 1.167-2.81.7-4.684-1.166-1.873-2.334-1.873-4.667-1.17-6.3-.703-.7-1.406-2.1-1.64-3.034-.234-2.333.702-3.266 1.873-2.799zm223.411 129.729c-.234-.933 0-1.866.469-2.333.936-.933 2.107-.233 3.278.933.234-1.166.469-2.333 1.639-2.333.703 0 1.64.933 2.108 1.867-.234-1.167 0-2.1.468-2.8.703-.934 2.108-.934 3.513.233 1.171.933 2.342 2.8 2.81 4.667.469.233.703.466 1.406.933.936.467 1.639.933 2.341 2.1.937 1.633 1.405 3.266 1.405 4.666 1.64.934 3.279 2.334 3.982 4.9.702 2.8-.469 3.733-1.874 3.967.468.933.468 2.1.234 3.033-.702 2.1-2.576 1.633-4.449.233-1.405 1.634-4.215.234-5.855-2.333-1.405.7-4.683-1.167-5.854-4.433-1.171 1.167-2.811.7-4.684-1.167-1.873-2.333-1.873-4.666-1.171-6.3-.702-.7-1.405-2.1-1.639-3.033-.234-2.333.702-3.266 1.873-2.8z" fill="#F5E2E1"/><path d="M138.618 238.522l4.918-12.366 2.108 1.166-2.342 13.767c-1.405-.7-3.045-1.634-4.684-2.567zm-6.323 15.4l5.152-12.833c1.64.933 3.513 1.866 5.386 2.8l-2.576 14.466c-2.576-1.4-5.152-3.033-7.962-4.433zm-7.025 17.032l6.088-14.699 8.431 4.9-3.513 16.566c-3.512-2.333-7.259-4.667-11.006-6.767zm10.538 10.733l-3.044 14.233-14.52-8.4 5.621-13.299c3.981 2.333 7.962 4.9 11.943 7.466z" fill="#fff"/><path d="M288.964 163.391l-6.323 3.733L.216 4.728 6.539.995 288.964 163.39z" fill="#826F8C"/></svg>
